icons/desktop/16/svg/bookmarks-tray-16.svg

<svg width="16" height="16" viewBox="0 0 16 16" fill="none" xmlns="http://www.w3.org/2000/svg">
<path d="M14.25 11C14.6642 11 15 11.3358 15 11.75V13.0059C15 14.3855 13.9763 15.5763 12.5859 15.7373C11.2006 15.8973 9.66484 16 8 16C6.8148 16 5.49245 15.9473 4.05957 15.8057L3.43848 15.7393C2.05011 15.5796 1 14.3982 1 13.0029V11.75C1 11.3358 1.33579 11 1.75 11C2.16421 11 2.5 11.3358 2.5 11.75V13.0029C2.5 13.6376 2.97987 14.1765 3.60938 14.249L4.20703 14.3125C5.5866 14.4488 6.85948 14.5 8 14.5C9.60309 14.5 11.0814 14.401 12.4141 14.2471C13.0276 14.1759 13.5 13.6441 13.5 13.0059V11.75C13.5 11.3358 13.8358 11 14.25 11Z" fill="black"/>
<path fill-rule="evenodd" clip-rule="evenodd" d="M7.99902 1C8.59102 1.00001 9.11401 1.35526 9.33301 1.90625L10.1182 3.87695L12.5225 4.0332C13.0933 4.07038 13.5882 4.44352 13.7852 4.98438C13.98 5.52527 13.8436 6.10512 13.4287 6.49902C13.2708 6.64897 13.1009 6.80216 12.9189 6.9541C12.46 7.34104 11.9681 7.69197 11.4521 8.00293L12.0137 10.2109C12.1587 10.7759 11.961 11.3472 11.5 11.7012C11.2423 11.8989 10.9337 11.9978 10.6221 11.998C10.3785 11.9979 10.1347 11.9372 9.91211 11.8135C9.58622 11.6305 9.25108 11.4244 8.9082 11.1895C8.5992 10.9775 8.295 10.7479 8 10.5039C7.705 10.7469 7.3998 10.9775 7.0918 11.1895C6.74892 11.4244 6.41376 11.6305 6.08887 11.8135C5.58096 12.0963 4.95694 12.053 4.49805 11.7012C4.03705 11.3472 3.84037 10.7759 3.98438 10.2109L4.5459 8.00293C4.02999 7.69198 3.53807 7.34005 3.07715 6.95312C2.89723 6.80219 2.7273 6.64898 2.56836 6.49805C2.15445 6.10514 2.01709 5.52527 2.21289 4.98438C2.40884 4.44352 2.90376 4.07037 3.47656 4.0332L5.87988 3.87695L6.66602 1.9043C6.88402 1.3553 7.40702 1 7.99902 1ZM7.10059 4.87012C6.99355 5.13894 6.74198 5.32178 6.45312 5.34082L3.72266 5.51758C3.8256 5.61253 3.93298 5.70681 4.04492 5.80176C4.57692 6.24976 5.15748 6.64173 5.77148 6.96973C6.07631 7.13279 6.22853 7.48248 6.14355 7.81738L5.47656 10.4346C5.72656 10.2896 5.98412 10.1301 6.24512 9.95215C6.59601 9.71122 6.93869 9.44603 7.2666 9.16113C7.48059 8.97615 7.74197 8.8838 8.00195 8.88379L8 8.88477C8.261 8.88477 8.52235 8.97711 8.73535 9.16211C9.06326 9.44601 9.40694 9.71122 9.75684 9.95215C10.0178 10.1311 10.2754 10.2906 10.5254 10.4346L9.8584 7.81738C9.7734 7.48338 9.92645 7.13273 10.2314 6.96973C10.8443 6.64178 11.4242 6.24962 11.9551 5.80273C12.069 5.70778 12.1773 5.61253 12.2793 5.51758L9.54883 5.34082C9.25999 5.32176 9.0084 5.13894 8.90137 4.87012L8.00098 2.6084L7.10059 4.87012Z" fill="black"/>
</svg>

<!-- This Source Code Form is subject to the terms of the Mozilla Public
   - License, v. 2.0. If a copy of the MPL was not distributed with this
   - file, You can obtain one at http://mozilla.org/MPL/2.0/. -->
<svg xmlns="http://www.w3.org/2000/svg" width="16" height="16" fill="context-fill" fill-opacity="context-fill-opacity" viewBox="0 0 16 16">
    <path d="M14.25 11a.75.75 0 0 1 .75.75v1.256c0 1.38-1.024 2.57-2.414 2.731a40 40 0 0 1-8.526.069l-.622-.067A2.76 2.76 0 0 1 1 13.003V11.75a.75.75 0 0 1 1.5 0v1.253c0 .635.48 1.174 1.11 1.246l.597.063a38.6 38.6 0 0 0 8.207-.065 1.24 1.24 0 0 0 1.086-1.241V11.75a.75.75 0 0 1 .75-.75" />
    <path fill-rule="evenodd" d="M7.999 1c.592 0 1.115.355 1.334.906l.785 1.971 2.405.156c.57.037 1.065.41 1.262.951.195.541.059 1.121-.356 1.515q-.237.226-.51.455-.69.582-1.467 1.049l.562 2.208a1.41 1.41 0 0 1-.514 1.49 1.44 1.44 0 0 1-.878.297 1.46 1.46 0 0 1-.71-.184q-.489-.274-1.004-.624A13 13 0 0 1 8 10.504q-.444.366-.908.686-.515.35-1.003.624a1.45 1.45 0 0 1-1.591-.113 1.41 1.41 0 0 1-.514-1.49l.562-2.208a11.6 11.6 0 0 1-1.978-1.505 1.4 1.4 0 0 1-.355-1.514c.196-.54.69-.914 1.264-.95l2.403-.157.786-1.973A1.43 1.43 0 0 1 7.999 1m-.898 3.87a.75.75 0 0 1-.648.47l-2.73.178q.154.142.322.284c.532.448 1.112.84 1.726 1.168a.75.75 0 0 1 .373.847l-.667 2.618q.376-.217.768-.483.528-.362 1.022-.79c.214-.186.475-.278.735-.278H8c.261 0 .522.093.735.278.328.284.672.55 1.022.79q.392.268.768.483l-.667-2.618a.75.75 0 0 1 .373-.847 10 10 0 0 0 2.048-1.452L9.55 5.34a.75.75 0 0 1-.648-.47l-.9-2.263z" clip-rule="evenodd" />
</svg>
